img/twitter.svg

<?xml version="1.0" encoding="UTF-8"?>
<svg width="20px" height="20px" viewBox="0 0 20 20" version="1.1" xmlns="http://www.w3.org/2000/svg" xmlns:xlink="http://www.w3.org/1999/xlink">
    <!-- Generator: Sketch 60.1 (88133) - https://sketch.com -->
    <title>twitter</title>
    <desc>Created with Sketch.</desc>
    <g id="页面-1" stroke="none" stroke-width="1" fill="none" fill-rule="evenodd">
        <g id="桌面端-HD" transform="translate(-229.000000, -4645.000000)" fill="#FFFFFF" fill-rule="nonzero">
            <g id="编组-10" transform="translate(0.000000, 4234.000000)">
                <g id="编组-8" transform="translate(229.000000, 411.000000)">
                    <path d="M10,-1.0658141e-14 C4.476875,-1.0658141e-14 0,4.476875 0,10 C0,15.523125 4.476875,20 10,20 C15.523125,20 20,15.523125 20,10 C20,4.476875 15.523125,-1.0658141e-14 10,-1.0658141e-14 Z M14.97,7.450625 C14.975,7.560625 14.9775,7.67125 14.9775,7.7825 C14.9775,11.17125 12.398125,15.079375 7.680625,15.079375 C6.2325,15.079375 4.884375,14.655 3.749375,13.926875 C3.95,13.950625 4.154375,13.963125 4.36125,13.963125 C5.5625,13.963125 6.66875,13.553125 7.54625,12.865 C6.42375,12.844375 5.476875,12.103125 5.150625,11.084375 C5.3075,11.114375 5.468125,11.130625 5.633125,11.130625 C5.866875,11.130625 6.09375,11.099375 6.30875,11.040625 C5.135625,10.805 4.251875,9.76875 4.251875,8.52625 C4.251875,8.515625 4.251875,8.505 4.251875,8.49375 C4.5975,8.685625 4.993125,8.80125 5.413125,8.814375 C4.725,8.354375 4.2725,7.569375 4.2725,6.68 C4.2725,6.21 4.39875,5.769375 4.62,5.390625 C5.885,6.941875 7.774375,7.963125 9.905625,8.07 C9.861875,7.8825 9.839375,7.68625 9.839375,7.485625 C9.839375,6.069375 10.9875,4.92125 12.40375,4.92125 C13.14125,4.92125 13.808125,5.2325 14.275625,5.73125 C14.86,5.61625 15.40875,5.403125 15.904375,5.10875 C15.713125,5.7075 15.30625,6.21 14.776875,6.5275 C15.295625,6.465625 15.79,6.3275 16.25,6.12375 C15.90625,6.638125 15.471875,7.089375 14.970625,7.45125 L14.97,7.450625 Z" id="twitter"></path>
                </g>
            </g>
        </g>
    </g>
</svg>

<svg xmlns="http://www.w3.org/2000/svg" width="20" height="20" xmlns:v="https://vecta.io/nano"><path d="M10 0a10 10 0 0 0 0 20 10 10 0 1 0 0-20zm4.97 7.45a7.31 7.31 0 0 1 .007.332c0 3.39-2.58 7.297-7.297 7.297-1.448 0-2.796-.424-3.93-1.152.2.024.405.036.612.036 1.2 0 2.308-.4 3.185-1.098-1.122-.02-2.07-.762-2.396-1.78a2.56 2.56 0 0 0 1.158-.044c-1.173-.236-2.057-1.272-2.057-2.514v-.032c.346.192.74.307 1.16.32-.688-.46-1.14-1.245-1.14-2.134a2.55 2.55 0 0 1 .348-1.289A7.28 7.28 0 0 0 9.906 8.07c-.044-.187-.066-.384-.066-.584 0-1.416 1.148-2.564 2.564-2.564a2.56 2.56 0 0 1 1.872.81c.584-.115 1.133-.328 1.63-.623a2.57 2.57 0 0 1-1.127 1.419c.52-.062 1.013-.2 1.473-.404a5.21 5.21 0 0 1-1.279 1.327l-.001-.001z" fill="#fff"/></svg>
